nextcloudappstore/core/static/assets/img/icons/categories/gamepad-variant-white.svg

<svg width="20" height="20" fill="none" style="-webkit-print-color-adjust:exact" version="1.1" viewBox="-0 0 20 20" xmlns="http://www.w3.org/2000/svg"><g rx="0" ry="0" fill="#000"><g class="fills"><path rx="0" ry="0" d="m5.833 5h8.334c2.761 0 5 2.239 5 5s-2.239 5-5 5c-1.484 0-2.809-0.642-3.725-1.667h-0.884c-0.916 1.025-2.241 1.667-3.725 1.667-2.761 0-5-2.239-5-5s2.239-5 5-5zm-0.833 2.5v1.667h-1.667v1.666h1.667v1.667h1.667v-1.667h1.666v-1.666h-1.666v-1.667h-1.667zm7.917 2.5c-0.691 0-1.25 0.56-1.25 1.25s0.559 1.25 1.25 1.25c0.69 0 1.25-0.56 1.25-1.25s-0.56-1.25-1.25-1.25zm2.5-2.5c-0.691 0-1.25 0.56-1.25 1.25s0.559 1.25 1.25 1.25c0.69 0 1.25-0.56 1.25-1.25s-0.56-1.25-1.25-1.25z" fill="#fff"/></g></g></svg>

<svg xmlns:xlink="http://www.w3.org/1999/xlink" width="20" xmlns="http://www.w3.org/2000/svg" height="20" id="screenshot-db15cf86-6f9e-8025-8002-bbab9ed6fdf2" viewBox="-0 0 20 20" style="-webkit-print-color-adjust: exact;" fill="none" version="1.1"><g id="shape-db15cf86-6f9e-8025-8002-bbab9ed6fdf2" rx="0" ry="0" style="fill: rgb(0, 0, 0);"><g id="shape-db15cf86-6f9e-8025-8002-bbab9ed6fdf4"><g class="fills" id="fills-db15cf86-6f9e-8025-8002-bbab9ed6fdf4"><path rx="0" ry="0" d="M5.833,5.000L14.167,5.000C16.928,5.000,19.167,7.239,19.167,10.000C19.167,12.761,16.928,15.000,14.167,15.000C12.683,15.000,11.358,14.358,10.442,13.333L9.558,13.333C8.642,14.358,7.317,15.000,5.833,15.000C3.072,15.000,0.833,12.761,0.833,10.000C0.833,7.239,3.072,5.000,5.833,5.000ZM5.000,7.500L5.000,9.167L3.333,9.167L3.333,10.833L5.000,10.833L5.000,12.500L6.667,12.500L6.667,10.833L8.333,10.833L8.333,9.167L6.667,9.167L6.667,7.500L5.000,7.500ZM12.917,10.000C12.226,10.000,11.667,10.560,11.667,11.250C11.667,11.940,12.226,12.500,12.917,12.500C13.607,12.500,14.167,11.940,14.167,11.250C14.167,10.560,13.607,10.000,12.917,10.000ZM15.417,7.500C14.726,7.500,14.167,8.060,14.167,8.750C14.167,9.440,14.726,10.000,15.417,10.000C16.107,10.000,16.667,9.440,16.667,8.750C16.667,8.060,16.107,7.500,15.417,7.500ZZ" style="fill: rgb(255, 255, 255); fill-opacity: 1;"/></g></g></g></svg>
